images/3232658.svg

<?xml version="1.0" encoding="UTF-8"?>
<svg xmlns="http://www.w3.org/2000/svg" xmlns:xlink="http://www.w3.org/1999/xlink" width="300pt" height="300pt" viewBox="0 0 300 300" version="1.1">
<defs>
<g>
<symbol overflow="visible" id="glyph0-0">
<path style="stroke:none;" d="M 0.453125 1.59375 L 0.453125 -6.34375 L 4.953125 -6.34375 L 4.953125 1.59375 Z M 0.953125 1.09375 L 4.453125 1.09375 L 4.453125 -5.84375 L 0.953125 -5.84375 Z M 0.953125 1.09375 "/>
</symbol>
<symbol overflow="visible" id="glyph0-1">
<path style="stroke:none;" d="M 0.890625 -6.5625 L 2.078125 -6.5625 L 4.984375 -1.078125 L 4.984375 -6.5625 L 5.84375 -6.5625 L 5.84375 0 L 4.65625 0 L 1.75 -5.484375 L 1.75 0 L 0.890625 0 Z M 0.890625 -6.5625 "/>
</symbol>
<symbol overflow="visible" id="glyph0-2">
<path style="stroke:none;" d="M 3.546875 -5.953125 C 2.898438 -5.953125 2.382812 -5.710938 2 -5.234375 C 1.625 -4.753906 1.4375 -4.101562 1.4375 -3.28125 C 1.4375 -2.445312 1.625 -1.789062 2 -1.3125 C 2.382812 -0.832031 2.898438 -0.59375 3.546875 -0.59375 C 4.191406 -0.59375 4.703125 -0.832031 5.078125 -1.3125 C 5.453125 -1.789062 5.640625 -2.445312 5.640625 -3.28125 C 5.640625 -4.101562 5.453125 -4.753906 5.078125 -5.234375 C 4.703125 -5.710938 4.191406 -5.953125 3.546875 -5.953125 Z M 3.546875 -6.6875 C 4.460938 -6.6875 5.195312 -6.375 5.75 -5.75 C 6.300781 -5.132812 6.578125 -4.3125 6.578125 -3.28125 C 6.578125 -2.238281 6.300781 -1.410156 5.75 -0.796875 C 5.195312 -0.179688 4.460938 0.125 3.546875 0.125 C 2.617188 0.125 1.878906 -0.179688 1.328125 -0.796875 C 0.773438 -1.410156 0.5 -2.238281 0.5 -3.28125 C 0.5 -4.3125 0.773438 -5.132812 1.328125 -5.75 C 1.878906 -6.375 2.617188 -6.6875 3.546875 -6.6875 Z M 3.546875 -6.6875 "/>
</symbol>
<symbol overflow="visible" id="glyph0-3">
<path style="stroke:none;" d="M 0.890625 -6.5625 L 4.65625 -6.5625 L 4.65625 -5.8125 L 1.765625 -5.8125 L 1.765625 -3.875 L 4.375 -3.875 L 4.375 -3.140625 L 1.765625 -3.140625 L 1.765625 0 L 0.890625 0 Z M 0.890625 -6.5625 "/>
</symbol>
</g>
</defs>
<g id="surface44117">
<rect x="0" y="0" width="300" height="300" style="fill:rgb(100%,100%,100%);fill-opacity:1;stroke:none;"/>
<path style="fill:none;stroke-width:1.2;stroke-linecap:butt;stroke-linejoin:miter;stroke:rgb(0%,0%,0%);stroke-opacity:1;stroke-miterlimit:10;" d="M 225.09375 201.515625 L 203.136719 202.746094 "/>
<path style="fill:none;stroke-width:1.2;stroke-linecap:butt;stroke-linejoin:miter;stroke:rgb(0%,0%,0%);stroke-opacity:1;stroke-miterlimit:10;" d="M 235.007812 181.882812 L 225.09375 201.515625 "/>
<path style="fill:none;stroke-width:1.2;stroke-linecap:butt;stroke-linejoin:miter;stroke:rgb(0%,0%,0%);stroke-opacity:1;stroke-miterlimit:10;" d="M 203.136719 202.746094 L 191.089844 184.34375 "/>
<path style="fill:none;stroke-width:1.2;stroke-linecap:butt;stroke-linejoin:miter;stroke:rgb(0%,0%,0%);stroke-opacity:1;stroke-miterlimit:10;" d="M 191.089844 184.34375 L 179.046875 165.941406 "/>
<path style="fill:none;stroke-width:1.2;stroke-linecap:butt;stroke-linejoin:miter;stroke:rgb(0%,0%,0%);stroke-opacity:1;stroke-miterlimit:10;" d="M 191.089844 184.34375 L 201.003906 164.710938 "/>
<path style="fill:none;stroke-width:1.2;stroke-linecap:butt;stroke-linejoin:miter;stroke:rgb(0%,0%,0%);stroke-opacity:1;stroke-miterlimit:10;" d="M 181.175781 203.976562 L 191.089844 184.34375 "/>
<path style="fill:none;stroke-width:1.2;stroke-linecap:butt;stroke-linejoin:miter;stroke:rgb(0%,0%,0%);stroke-opacity:1;stroke-miterlimit:10;" d="M 179.046875 165.941406 L 157.085938 167.171875 "/>
<path style="fill:none;stroke-width:1.2;stroke-linecap:butt;stroke-linejoin:miter;stroke:rgb(0%,0%,0%);stroke-opacity:1;stroke-miterlimit:10;" d="M 157.085938 167.171875 L 152.128906 176.988281 "/>
<path style="fill:none;stroke-width:1.2;stroke-linecap:butt;stroke-linejoin:miter;stroke:rgb(0%,0%,100%);stroke-opacity:1;stroke-miterlimit:10;" d="M 152.128906 176.988281 L 147.175781 186.804688 "/>
<path style="fill:none;stroke-width:1.2;stroke-linecap:butt;stroke-linejoin:miter;stroke:rgb(0%,0%,100%);stroke-opacity:1;stroke-miterlimit:10;" d="M 147.175781 186.804688 L 153.195312 196.003906 "/>
<path style="fill:none;stroke-width:1.2;stroke-linecap:butt;stroke-linejoin:miter;stroke:rgb(0%,0%,0%);stroke-opacity:1;stroke-miterlimit:10;" d="M 153.195312 196.003906 L 159.21875 205.203125 "/>
<path style="fill:none;stroke-width:1.2;stroke-linecap:butt;stroke-linejoin:miter;stroke:rgb(0%,0%,100%);stroke-opacity:1;stroke-miterlimit:10;" d="M 147.175781 186.804688 L 136.195312 187.417969 "/>
<path style="fill:none;stroke-width:1.2;stroke-linecap:butt;stroke-linejoin:miter;stroke:rgb(0%,0%,0%);stroke-opacity:1;stroke-miterlimit:10;" d="M 136.195312 187.417969 L 125.214844 188.035156 "/>
<path style=" stroke:none;fill-rule:nonzero;fill:rgb(100%,100%,100%);fill-opacity:1;" d="M 144.175781 181.304688 L 151.175781 181.304688 L 151.175781 192.304688 L 144.175781 192.304688 Z M 144.175781 181.304688 "/>
<g style="fill:rgb(0%,0%,100%);fill-opacity:1;">
  <use xlink:href="#glyph0-1" x="144.175781" y="189.967773"/>
</g>
<path style="fill:none;stroke-width:1.2;stroke-linecap:butt;stroke-linejoin:miter;stroke:rgb(0%,0%,0%);stroke-opacity:1;stroke-miterlimit:10;" d="M 159.21875 205.203125 L 181.175781 203.976562 "/>
<path style="fill:none;stroke-width:1.2;stroke-linecap:butt;stroke-linejoin:miter;stroke:rgb(0%,0%,0%);stroke-opacity:1;stroke-miterlimit:10;" d="M 122.90625 186.867188 L 117.949219 196.683594 "/>
<path style="fill:none;stroke-width:1.2;stroke-linecap:butt;stroke-linejoin:miter;stroke:rgb(100%,0%,0%);stroke-opacity:1;stroke-miterlimit:10;" d="M 117.949219 196.683594 L 112.992188 206.5 "/>
<path style="fill:none;stroke-width:1.2;stroke-linecap:butt;stroke-linejoin:miter;stroke:rgb(0%,0%,0%);stroke-opacity:1;stroke-miterlimit:10;" d="M 127.523438 189.199219 L 122.566406 199.015625 "/>
<path style="fill:none;stroke-width:1.2;stroke-linecap:butt;stroke-linejoin:miter;stroke:rgb(100%,0%,0%);stroke-opacity:1;stroke-miterlimit:10;" d="M 122.566406 199.015625 L 117.609375 208.832031 "/>
<path style="fill:none;stroke-width:1.2;stroke-linecap:butt;stroke-linejoin:miter;stroke:rgb(0%,0%,0%);stroke-opacity:1;stroke-miterlimit:10;" d="M 125.214844 188.035156 L 113.171875 169.632812 "/>
<path style=" stroke:none;fill-rule:nonzero;fill:rgb(100%,100%,100%);fill-opacity:1;" d="M 107.300781 202.164062 L 115.300781 202.164062 L 115.300781 213.164062 L 107.300781 213.164062 Z M 107.300781 202.164062 "/>
<g style="fill:rgb(100%,0%,0%);fill-opacity:1;">
  <use xlink:href="#glyph0-2" x="107.300781" y="210.827148"/>
</g>
<path style="fill:none;stroke-width:1.2;stroke-linecap:butt;stroke-linejoin:miter;stroke:rgb(0%,0%,0%);stroke-opacity:1;stroke-miterlimit:10;" d="M 113.171875 169.632812 L 123.085938 150 "/>
<path style="fill:none;stroke-width:1.2;stroke-linecap:butt;stroke-linejoin:miter;stroke:rgb(0%,0%,0%);stroke-opacity:1;stroke-miterlimit:10;" d="M 109.542969 165.335938 L 117.472656 149.628906 "/>
<path style="fill:none;stroke-width:1.2;stroke-linecap:butt;stroke-linejoin:miter;stroke:rgb(0%,0%,0%);stroke-opacity:1;stroke-miterlimit:10;" d="M 91.210938 170.863281 L 113.171875 169.632812 "/>
<path style="fill:none;stroke-width:1.2;stroke-linecap:butt;stroke-linejoin:miter;stroke:rgb(0%,0%,0%);stroke-opacity:1;stroke-miterlimit:10;" d="M 123.085938 150 L 111.039062 131.597656 "/>
<path style="fill:none;stroke-width:1.2;stroke-linecap:butt;stroke-linejoin:miter;stroke:rgb(0%,0%,0%);stroke-opacity:1;stroke-miterlimit:10;" d="M 111.039062 131.597656 L 89.082031 132.828125 "/>
<path style="fill:none;stroke-width:1.2;stroke-linecap:butt;stroke-linejoin:miter;stroke:rgb(0%,0%,0%);stroke-opacity:1;stroke-miterlimit:10;" d="M 109.132812 136.886719 L 91.566406 137.871094 "/>
<path style="fill:none;stroke-width:1.2;stroke-linecap:butt;stroke-linejoin:miter;stroke:rgb(0%,0%,0%);stroke-opacity:1;stroke-miterlimit:10;" d="M 111.039062 131.597656 L 120.953125 111.964844 "/>
<path style="fill:none;stroke-width:1.2;stroke-linecap:butt;stroke-linejoin:miter;stroke:rgb(0%,0%,0%);stroke-opacity:1;stroke-miterlimit:10;" d="M 89.082031 132.828125 L 79.167969 152.460938 "/>
<path style="fill:none;stroke-width:1.2;stroke-linecap:butt;stroke-linejoin:miter;stroke:rgb(0%,0%,0%);stroke-opacity:1;stroke-miterlimit:10;" d="M 79.167969 152.460938 L 91.210938 170.863281 "/>
<path style="fill:none;stroke-width:1.2;stroke-linecap:butt;stroke-linejoin:miter;stroke:rgb(0%,0%,0%);stroke-opacity:1;stroke-miterlimit:10;" d="M 84.703125 151.464844 L 94.335938 166.1875 "/>
<path style="fill:none;stroke-width:1.2;stroke-linecap:butt;stroke-linejoin:miter;stroke:rgb(0%,0%,0%);stroke-opacity:1;stroke-miterlimit:10;" d="M 79.167969 152.460938 L 57.207031 153.691406 "/>
<path style="fill:none;stroke-width:1.2;stroke-linecap:butt;stroke-linejoin:miter;stroke:rgb(0%,0%,0%);stroke-opacity:1;stroke-miterlimit:10;" d="M 57.207031 153.691406 L 46.230469 154.304688 "/>
<path style="fill:none;stroke-width:1.2;stroke-linecap:butt;stroke-linejoin:miter;stroke:rgb(20%,80%,80%);stroke-opacity:1;stroke-miterlimit:10;" d="M 46.230469 154.304688 L 35.25 154.921875 "/>
<path style="fill:none;stroke-width:1.2;stroke-linecap:butt;stroke-linejoin:miter;stroke:rgb(0%,0%,0%);stroke-opacity:1;stroke-miterlimit:10;" d="M 57.207031 153.691406 L 56.59375 142.710938 "/>
<path style="fill:none;stroke-width:1.2;stroke-linecap:butt;stroke-linejoin:miter;stroke:rgb(20%,80%,80%);stroke-opacity:1;stroke-miterlimit:10;" d="M 56.59375 142.710938 L 55.976562 131.730469 "/>
<path style="fill:none;stroke-width:1.2;stroke-linecap:butt;stroke-linejoin:miter;stroke:rgb(0%,0%,0%);stroke-opacity:1;stroke-miterlimit:10;" d="M 57.207031 153.691406 L 57.824219 164.671875 "/>
<path style="fill:none;stroke-width:1.2;stroke-linecap:butt;stroke-linejoin:miter;stroke:rgb(20%,80%,80%);stroke-opacity:1;stroke-miterlimit:10;" d="M 57.824219 164.671875 L 58.4375 175.648438 "/>
<path style=" stroke:none;fill-rule:nonzero;fill:rgb(100%,100%,100%);fill-opacity:1;" d="M 29.25 149.421875 L 35.25 149.421875 L 35.25 160.421875 L 29.25 160.421875 Z M 29.25 149.421875 "/>
<g style="fill:rgb(20%,80%,80%);fill-opacity:1;">
  <use xlink:href="#glyph0-3" x="29.25" y="158.084961"/>
</g>
<path style=" stroke:none;fill-rule:nonzero;fill:rgb(100%,100%,100%);fill-opacity:1;" d="M 52.976562 126.230469 L 58.976562 126.230469 L 58.976562 137.230469 L 52.976562 137.230469 Z M 52.976562 126.230469 "/>
<g style="fill:rgb(20%,80%,80%);fill-opacity:1;">
  <use xlink:href="#glyph0-3" x="52.976562" y="134.893555"/>
</g>
<path style=" stroke:none;fill-rule:nonzero;fill:rgb(100%,100%,100%);fill-opacity:1;" d="M 55.4375 170.148438 L 61.4375 170.148438 L 61.4375 181.148438 L 55.4375 181.148438 Z M 55.4375 170.148438 "/>
<g style="fill:rgb(20%,80%,80%);fill-opacity:1;">
  <use xlink:href="#glyph0-3" x="55.4375" y="178.811523"/>
</g>
<path style="fill:none;stroke-width:1.2;stroke-linecap:butt;stroke-linejoin:miter;stroke:rgb(0%,0%,0%);stroke-opacity:1;stroke-miterlimit:10;" d="M 120.953125 111.964844 L 125.910156 102.152344 "/>
<path style="fill:none;stroke-width:1.2;stroke-linecap:butt;stroke-linejoin:miter;stroke:rgb(20%,80%,80%);stroke-opacity:1;stroke-miterlimit:10;" d="M 125.910156 102.152344 L 130.867188 92.335938 "/>
<path style="fill:none;stroke-width:1.2;stroke-linecap:butt;stroke-linejoin:miter;stroke:rgb(0%,0%,0%);stroke-opacity:1;stroke-miterlimit:10;" d="M 120.953125 111.964844 L 130.769531 116.921875 "/>
<path style="fill:none;stroke-width:1.2;stroke-linecap:butt;stroke-linejoin:miter;stroke:rgb(20%,80%,80%);stroke-opacity:1;stroke-miterlimit:10;" d="M 130.769531 116.921875 L 140.585938 121.878906 "/>
<path style="fill:none;stroke-width:1.2;stroke-linecap:butt;stroke-linejoin:miter;stroke:rgb(0%,0%,0%);stroke-opacity:1;stroke-miterlimit:10;" d="M 120.953125 111.964844 L 111.136719 107.007812 "/>
<path style="fill:none;stroke-width:1.2;stroke-linecap:butt;stroke-linejoin:miter;stroke:rgb(20%,80%,80%);stroke-opacity:1;stroke-miterlimit:10;" d="M 111.136719 107.007812 L 101.320312 102.050781 "/>
<path style=" stroke:none;fill-rule:nonzero;fill:rgb(100%,100%,100%);fill-opacity:1;" d="M 127.867188 86.835938 L 133.867188 86.835938 L 133.867188 97.835938 L 127.867188 97.835938 Z M 127.867188 86.835938 "/>
<g style="fill:rgb(20%,80%,80%);fill-opacity:1;">
  <use xlink:href="#glyph0-3" x="127.867188" y="95.499023"/>
</g>
<path style=" stroke:none;fill-rule:nonzero;fill:rgb(100%,100%,100%);fill-opacity:1;" d="M 137.585938 116.378906 L 143.585938 116.378906 L 143.585938 127.378906 L 137.585938 127.378906 Z M 137.585938 116.378906 "/>
<g style="fill:rgb(20%,80%,80%);fill-opacity:1;">
  <use xlink:href="#glyph0-3" x="137.585938" y="125.041992"/>
</g>
<path style=" stroke:none;fill-rule:nonzero;fill:rgb(100%,100%,100%);fill-opacity:1;" d="M 95.320312 96.550781 L 101.320312 96.550781 L 101.320312 107.550781 L 95.320312 107.550781 Z M 95.320312 96.550781 "/>
<g style="fill:rgb(20%,80%,80%);fill-opacity:1;">
  <use xlink:href="#glyph0-3" x="95.320312" y="105.213867"/>
</g>
<path style="fill:none;stroke-width:1.2;stroke-linecap:butt;stroke-linejoin:miter;stroke:rgb(0%,0%,0%);stroke-opacity:1;stroke-miterlimit:10;" d="M 201.003906 164.710938 L 211.984375 164.097656 "/>
<path style="fill:none;stroke-width:1.2;stroke-linecap:butt;stroke-linejoin:miter;stroke:rgb(0%,0%,100%);stroke-opacity:1;stroke-miterlimit:10;" d="M 211.984375 164.097656 L 222.964844 163.480469 "/>
<path style="fill:none;stroke-width:1.2;stroke-linecap:butt;stroke-linejoin:miter;stroke:rgb(0%,0%,100%);stroke-opacity:1;stroke-miterlimit:10;" d="M 222.964844 163.480469 L 228.984375 172.679688 "/>
<path style="fill:none;stroke-width:1.2;stroke-linecap:butt;stroke-linejoin:miter;stroke:rgb(0%,0%,0%);stroke-opacity:1;stroke-miterlimit:10;" d="M 228.984375 172.679688 L 235.007812 181.882812 "/>
<path style="fill:none;stroke-width:1.2;stroke-linecap:butt;stroke-linejoin:miter;stroke:rgb(0%,0%,100%);stroke-opacity:1;stroke-miterlimit:10;" d="M 222.964844 163.480469 L 227.921875 153.664062 "/>
<path style="fill:none;stroke-width:1.2;stroke-linecap:butt;stroke-linejoin:miter;stroke:rgb(0%,0%,0%);stroke-opacity:1;stroke-miterlimit:10;" d="M 227.921875 153.664062 L 232.878906 143.847656 "/>
<path style=" stroke:none;fill-rule:nonzero;fill:rgb(100%,100%,100%);fill-opacity:1;" d="M 219.964844 157.980469 L 226.964844 157.980469 L 226.964844 168.980469 L 219.964844 168.980469 Z M 219.964844 157.980469 "/>
<g style="fill:rgb(0%,0%,100%);fill-opacity:1;">
  <use xlink:href="#glyph0-1" x="219.964844" y="166.643555"/>
</g>
<path style="fill:none;stroke-width:1.2;stroke-linecap:butt;stroke-linejoin:miter;stroke:rgb(0%,0%,0%);stroke-opacity:1;stroke-miterlimit:10;" d="M 232.878906 143.847656 L 254.835938 142.617188 "/>
<path style="fill:none;stroke-width:1.2;stroke-linecap:butt;stroke-linejoin:miter;stroke:rgb(0%,0%,0%);stroke-opacity:1;stroke-miterlimit:10;" d="M 234.785156 138.558594 L 252.351562 137.574219 "/>
<path style="fill:none;stroke-width:1.2;stroke-linecap:butt;stroke-linejoin:miter;stroke:rgb(0%,0%,100%);stroke-opacity:1;stroke-miterlimit:10;" d="M 220.832031 125.449219 L 226.855469 134.648438 "/>
<path style="fill:none;stroke-width:1.2;stroke-linecap:butt;stroke-linejoin:miter;stroke:rgb(0%,0%,0%);stroke-opacity:1;stroke-miterlimit:10;" d="M 226.855469 134.648438 L 232.878906 143.847656 "/>
<path style="fill:none;stroke-width:1.2;stroke-linecap:butt;stroke-linejoin:miter;stroke:rgb(0%,0%,0%);stroke-opacity:1;stroke-miterlimit:10;" d="M 254.835938 142.617188 L 264.75 122.988281 "/>
<path style="fill:none;stroke-width:1.2;stroke-linecap:butt;stroke-linejoin:miter;stroke:rgb(0%,0%,0%);stroke-opacity:1;stroke-miterlimit:10;" d="M 264.75 122.988281 L 252.707031 104.585938 "/>
<path style="fill:none;stroke-width:1.2;stroke-linecap:butt;stroke-linejoin:miter;stroke:rgb(0%,0%,0%);stroke-opacity:1;stroke-miterlimit:10;" d="M 259.214844 123.980469 L 249.578125 109.257812 "/>
<path style="fill:none;stroke-width:1.2;stroke-linecap:butt;stroke-linejoin:miter;stroke:rgb(0%,0%,0%);stroke-opacity:1;stroke-miterlimit:10;" d="M 252.707031 104.585938 L 230.746094 105.816406 "/>
<path style="fill:none;stroke-width:1.2;stroke-linecap:butt;stroke-linejoin:miter;stroke:rgb(0%,0%,0%);stroke-opacity:1;stroke-miterlimit:10;" d="M 230.746094 105.816406 L 225.789062 115.632812 "/>
<path style="fill:none;stroke-width:1.2;stroke-linecap:butt;stroke-linejoin:miter;stroke:rgb(0%,0%,100%);stroke-opacity:1;stroke-miterlimit:10;" d="M 225.789062 115.632812 L 220.832031 125.449219 "/>
<path style="fill:none;stroke-width:1.2;stroke-linecap:butt;stroke-linejoin:miter;stroke:rgb(0%,0%,0%);stroke-opacity:1;stroke-miterlimit:10;" d="M 234.375 110.113281 L 230.410156 117.964844 "/>
<path style="fill:none;stroke-width:1.2;stroke-linecap:butt;stroke-linejoin:miter;stroke:rgb(0%,0%,100%);stroke-opacity:1;stroke-miterlimit:10;" d="M 230.410156 117.964844 L 226.445312 125.816406 "/>
<path style=" stroke:none;fill-rule:nonzero;fill:rgb(100%,100%,100%);fill-opacity:1;" d="M 217.832031 119.949219 L 224.832031 119.949219 L 224.832031 130.949219 L 217.832031 130.949219 Z M 217.832031 119.949219 "/>
<g style="fill:rgb(0%,0%,100%);fill-opacity:1;">
  <use xlink:href="#glyph0-1" x="217.832031" y="128.612305"/>
</g>
</g>
</svg>

<svg xmlns="http://www.w3.org/2000/svg" xmlns:xlink="http://www.w3.org/1999/xlink" width="300pt" height="300pt" viewBox="0 0 300 300"><defs><symbol overflow="visible"><path d="M.453 1.594v-7.938h4.5v7.938zm.5-.5h3.5v-6.938h-3.5zm0 0"/></symbol><symbol overflow="visible" id="a"><path d="M.89-6.563H2.08l2.906 5.485v-5.484h.86V0H4.656L1.75-5.484V0H.89zm0 0"/></symbol><symbol overflow="visible" id="b"><path d="M3.547-5.953c-.65 0-1.164.242-1.547.72-.375.48-.563 1.13-.563 1.952 0 .835.188 1.49.563 1.967.383.48.898.72 1.547.72.644 0 1.156-.24 1.53-.72.376-.476.564-1.132.564-1.968 0-.822-.187-1.474-.562-1.954-.375-.477-.887-.72-1.53-.72zm0-.734c.914 0 1.648.312 2.203.937.55.617.828 1.438.828 2.47 0 1.042-.277 1.87-.828 2.483-.555.617-1.29.922-2.203.922-.93 0-1.668-.305-2.22-.922C.774-1.41.5-2.237.5-3.28c0-1.033.273-1.853.828-2.47.55-.625 1.29-.938 2.22-.938zm0 0"/></symbol><symbol overflow="visible" id="c"><path d="M.89-6.563h3.766v.75h-2.89v1.938h2.61v.734h-2.61V0H.89zm0 0"/></symbol></defs><g><path fill="#fff" d="M0 0h300v300H0z"/><path d="M225.094 201.516l-21.957 1.23M235.008 181.883l-9.914 19.633M203.137 202.746l-12.047-18.402M191.09 184.344l-12.043-18.403M191.09 184.344l9.914-19.633M181.176 203.977l9.914-19.633M179.047 165.94l-21.96 1.232M157.086 167.172l-4.957 9.816" stroke-width="1.2" stroke="#000" stroke-miterlimit="10" fill="none"/><path d="M152.13 176.988l-4.954 9.817M147.176 186.805l6.02 9.2" stroke-width="1.2" stroke="#00f" stroke-miterlimit="10" fill="none"/><path d="M153.195 196.004l6.024 9.2" stroke-width="1.2" stroke="#000" stroke-miterlimit="10" fill="none"/><path d="M147.176 186.805l-10.98.613" stroke-width="1.2" stroke="#00f" stroke-miterlimit="10" fill="none"/><path d="M136.195 187.418l-10.98.617" stroke-width="1.2" stroke="#000" stroke-miterlimit="10" fill="none"/><path d="M144.176 181.305h7v11h-7zm0 0" fill="#fff"/><use xlink:href="#a" x="144.176" y="189.968" fill="#00f"/><path d="M159.22 205.203l21.956-1.226M122.906 186.867l-4.957 9.817" stroke-width="1.2" stroke="#000" stroke-miterlimit="10" fill="none"/><path d="M117.95 196.684l-4.958 9.816" stroke-width="1.2" stroke="#f00" stroke-miterlimit="10" fill="none"/><path d="M127.523 189.2l-4.957 9.816" stroke-width="1.2" stroke="#000" stroke-miterlimit="10" fill="none"/><path d="M122.566 199.016l-4.957 9.816" stroke-width="1.2" stroke="#f00" stroke-miterlimit="10" fill="none"/><path d="M125.215 188.035l-12.043-18.402" stroke-width="1.2" stroke="#000" stroke-miterlimit="10" fill="none"/><path d="M107.3 202.164h8v11h-8zm0 0" fill="#fff"/><use xlink:href="#b" x="107.301" y="210.827" fill="#f00"/><path d="M113.172 169.633L123.086 150M109.543 165.336l7.93-15.707M91.21 170.863l21.962-1.23M123.086 150l-12.047-18.402M111.04 131.598l-21.958 1.23M109.133 136.887l-17.567.984M111.04 131.598l9.913-19.633M89.082 132.828l-9.914 19.633M79.168 152.46l12.043 18.403M84.703 151.465l9.633 14.722M79.168 152.46l-21.96 1.23M57.207 153.69l-10.977.615" stroke-width="1.2" stroke="#000" stroke-miterlimit="10" fill="none"/><path d="M46.23 154.305l-10.98.617" stroke-width="1.2" stroke="#3cc" stroke-miterlimit="10" fill="none"/><path d="M57.207 153.69l-.613-10.98" stroke-width="1.2" stroke="#000" stroke-miterlimit="10" fill="none"/><path d="M56.594 142.71l-.617-10.98" stroke-width="1.2" stroke="#3cc" stroke-miterlimit="10" fill="none"/><path d="M57.207 153.69l.617 10.982" stroke-width="1.2" stroke="#000" stroke-miterlimit="10" fill="none"/><path d="M57.824 164.672l.614 10.976" stroke-width="1.2" stroke="#3cc" stroke-miterlimit="10" fill="none"/><path d="M29.25 149.422h6v11h-6zm0 0" fill="#fff"/><use xlink:href="#c" x="29.25" y="158.085" fill="#3cc"/><path d="M52.977 126.23h6v11h-6zm0 0" fill="#fff"/><use xlink:href="#c" x="52.977" y="134.894" fill="#3cc"/><path d="M55.438 170.148h6v11h-6zm0 0" fill="#fff"/><use xlink:href="#c" x="55.438" y="178.812" fill="#3cc"/><path d="M120.953 111.965l4.957-9.813" stroke-width="1.2" stroke="#000" stroke-miterlimit="10" fill="none"/><path d="M125.91 102.152l4.957-9.816" stroke-width="1.2" stroke="#3cc" stroke-miterlimit="10" fill="none"/><path d="M120.953 111.965l9.817 4.957" stroke-width="1.2" stroke="#000" stroke-miterlimit="10" fill="none"/><path d="M130.77 116.922l9.816 4.957" stroke-width="1.2" stroke="#3cc" stroke-miterlimit="10" fill="none"/><path d="M120.953 111.965l-9.816-4.957" stroke-width="1.2" stroke="#000" stroke-miterlimit="10" fill="none"/><path d="M111.137 107.008l-9.817-4.957" stroke-width="1.2" stroke="#3cc" stroke-miterlimit="10" fill="none"/><path d="M127.867 86.836h6v11h-6zm0 0" fill="#fff"/><use xlink:href="#c" x="127.867" y="95.499" fill="#3cc"/><path d="M137.586 116.38h6v11h-6zm0 0" fill="#fff"/><use xlink:href="#c" x="137.586" y="125.042" fill="#3cc"/><path d="M95.32 96.55h6v11h-6zm0 0" fill="#fff"/><use xlink:href="#c" x="95.32" y="105.214" fill="#3cc"/><path d="M201.004 164.71l10.98-.612" stroke-width="1.2" stroke="#000" stroke-miterlimit="10" fill="none"/><path d="M211.984 164.098l10.98-.618M222.965 163.48l6.02 9.2" stroke-width="1.2" stroke="#00f" stroke-miterlimit="10" fill="none"/><path d="M228.984 172.68l6.024 9.203" stroke-width="1.2" stroke="#000" stroke-miterlimit="10" fill="none"/><path d="M222.965 163.48l4.957-9.816" stroke-width="1.2" stroke="#00f" stroke-miterlimit="10" fill="none"/><path d="M227.922 153.664l4.957-9.816" stroke-width="1.2" stroke="#000" stroke-miterlimit="10" fill="none"/><path d="M219.965 157.98h7v11h-7zm0 0" fill="#fff"/><use xlink:href="#a" x="219.965" y="166.644" fill="#00f"/><path d="M232.88 143.848l21.956-1.23M234.785 138.56l17.567-.986" stroke-width="1.2" stroke="#000" stroke-miterlimit="10" fill="none"/><path d="M220.832 125.45l6.023 9.198" stroke-width="1.2" stroke="#00f" stroke-miterlimit="10" fill="none"/><path d="M226.855 134.648l6.024 9.2M254.836 142.617l9.914-19.63M264.75 122.988l-12.043-18.402M259.215 123.98l-9.637-14.722M252.707 104.586l-21.96 1.23M230.746 105.816l-4.957 9.817" stroke-width="1.2" stroke="#000" stroke-miterlimit="10" fill="none"/><path d="M225.79 115.633l-4.958 9.816" stroke-width="1.2" stroke="#00f" stroke-miterlimit="10" fill="none"/><path d="M234.375 110.113l-3.965 7.852" stroke-width="1.2" stroke="#000" stroke-miterlimit="10" fill="none"/><path d="M230.41 117.965l-3.965 7.85" stroke-width="1.2" stroke="#00f" stroke-miterlimit="10" fill="none"/><path d="M217.832 119.95h7v11h-7zm0 0" fill="#fff"/><use xlink:href="#a" x="217.832" y="128.612" fill="#00f"/></g></svg>
